static/logos/figma-wordmark-color.svg

<svg width="100" height="36" viewBox="0 0 100 36" fill="none" xmlns="http://www.w3.org/2000/svg">
<g clip-path="url(#clip0_1_2764)">
<path d="M0.710938 0V27.6164L4.27258 27.6301V14.4795H12.8342V11H4.25888V3.46575H15.4232V0H0.710938ZM21.8068 5.61644C22.4245 5.61644 23.0168 5.37108 23.4535 4.93436C23.8902 4.49763 24.1356 3.9053 24.1356 3.28767C24.1356 2.67004 23.8902 2.07771 23.4535 1.64099C23.0168 1.20426 22.4245 0.958904 21.8068 0.958904C21.1893 0.958904 20.5968 1.20426 20.1601 1.64099C19.7234 2.07771 19.478 2.67004 19.478 3.28767C19.478 3.9053 19.7234 4.49763 20.1601 4.93436C20.5968 5.37108 21.1893 5.61644 21.8068 5.61644ZM20.0123 9.08219V27.6301H23.5739V9.08219H20.0123Z" fill="black"/>
<path fill-rule="evenodd" clip-rule="evenodd" d="M36.7422 8.54797C32.0299 8.54797 28.7422 12.5343 28.7422 17.274C28.7422 22.0137 32.0299 26 36.7422 26C38.9066 26 40.6874 25.1781 41.9888 23.8083V26.274C41.9978 27.0107 41.8607 27.742 41.5855 28.4255C41.3101 29.1089 40.9022 29.731 40.3849 30.2558C39.8678 30.7807 39.2518 31.1977 38.5725 31.4831C37.893 31.7683 37.164 31.9161 36.4271 31.9178C35.2901 31.9178 34.1668 31.4795 33.2764 30.8494L31.4956 33.9315C32.8726 34.8217 34.4644 35.3236 36.1029 35.3844C37.7414 35.4452 39.3659 35.0626 40.8052 34.2772C42.2444 33.4917 43.4449 32.3322 44.2801 30.9211C45.1152 29.5102 45.5541 27.8999 45.5504 26.2603V9.09592H41.9888V10.7535C40.6874 9.38359 38.9066 8.56167 36.7422 8.56167V8.54797ZM32.2901 17.274C32.2901 14.3288 34.5367 12.0137 37.1394 12.0137C39.7422 12.0137 41.9751 14.3425 41.9751 17.274C41.9751 20.2192 39.7285 22.5206 37.1394 22.5206C34.5367 22.5206 32.2901 20.2192 32.2901 17.274Z" fill="black"/>
<path d="M58.3386 12.0137C57.32 12.0317 56.3493 12.45 55.6367 13.178C54.924 13.906 54.5266 14.8853 54.5304 15.9042V27.6303H50.9688V9.08224H54.5304V10.7809C55.0633 10.0746 55.7553 9.50427 56.5505 9.11624C57.3456 8.72821 58.2211 8.53351 59.1057 8.54799C61.5989 8.54799 63.5167 9.78087 64.6126 11.6713C65.224 10.7236 66.0607 9.94228 67.0481 9.39723C68.0353 8.85217 69.1423 8.56039 70.2701 8.54799C74.3112 8.54799 76.8455 11.8083 76.8455 15.8494V27.6303H73.3112V15.8905C73.3149 14.8716 72.9175 13.8923 72.2048 13.1643C71.4922 12.4363 70.5216 12.018 69.503 12C68.4844 12.018 67.5137 12.4363 66.8011 13.1643C66.0883 13.8923 65.6909 14.8716 65.6948 15.8905V27.6166H62.1331V15.8905C62.137 14.874 61.7414 13.8967 61.0316 13.1691C60.3219 12.4414 59.3548 12.0216 58.3386 12V12.0137Z" fill="black"/>
<path fill-rule="evenodd" clip-rule="evenodd" d="M95.7936 11.1917C94.9848 10.3483 94.0125 9.67887 92.936 9.22426C91.8596 8.76967 90.7018 8.5395 89.5333 8.54783C84.2456 8.54783 80.4922 13.0136 80.4922 18.356C80.4922 23.6985 84.2456 28.1643 89.5333 28.1643C90.7014 28.1701 91.8585 27.9389 92.9347 27.4845C94.0107 27.03 94.9833 26.3618 95.7936 25.5204V27.63H99.3415V9.08207H95.7799V11.1917H95.7936ZM84.0401 18.356C84.0401 14.8218 86.7525 12.0136 89.9168 12.0136C93.0675 12.0136 95.7936 14.8218 95.7936 18.356C95.7936 21.8903 93.0812 24.6848 89.9168 24.6848C86.7662 24.6848 84.0401 21.8903 84.0401 18.356Z" fill="black"/>
</g>
<defs>
<clipPath id="clip0_1_2764">
<rect width="100" height="35.6164" fill="white"/>
</clipPath>
</defs>
</svg>

<svg xmlns="http://www.w3.org/2000/svg" width="177.778" height="64" fill="none" viewBox="0 0 100 36"><g fill="#000" clip-path="url(#a)"><path d="M.71 0v27.616l3.563.014V14.48h8.561V11H4.26V3.466h11.164V0H.711Zm21.097 5.616a2.329 2.329 0 1 0 0-4.657 2.329 2.329 0 0 0 0 4.657Zm-1.795 3.466V27.63h3.562V9.082h-3.562Z"/><path fill-rule="evenodd" d="M36.742 8.548c-4.712 0-8 3.986-8 8.726S32.03 26 36.742 26c2.165 0 3.945-.822 5.247-2.192v2.466a5.578 5.578 0 0 1-5.562 5.644c-1.137 0-2.26-.438-3.15-1.069l-1.781 3.082a9.108 9.108 0 0 0 14.054-7.67V9.095H41.99v1.658c-1.302-1.37-3.082-2.192-5.247-2.192v-.014Zm-4.452 8.726c0-2.945 2.247-5.26 4.85-5.26 2.602 0 4.835 2.329 4.835 5.26 0 2.945-2.247 5.247-4.836 5.247-2.602 0-4.849-2.302-4.849-5.247Z" clip-rule="evenodd"/><path d="M58.339 12.014a3.877 3.877 0 0 0-3.809 3.89V27.63H50.97V9.082h3.561v1.699a5.615 5.615 0 0 1 4.576-2.233c2.493 0 4.41 1.233 5.507 3.123a6.821 6.821 0 0 1 5.657-3.123c4.041 0 6.576 3.26 6.576 7.301V27.63H73.31V15.89A3.877 3.877 0 0 0 69.503 12a3.877 3.877 0 0 0-3.808 3.89v11.727h-3.562V15.89A3.876 3.876 0 0 0 58.34 12v.014Z"/><path fill-rule="evenodd" d="M95.794 11.192a8.588 8.588 0 0 0-6.26-2.644c-5.288 0-9.042 4.466-9.042 9.808s3.754 9.808 9.041 9.808a8.634 8.634 0 0 0 6.26-2.644v2.11h3.548V9.082H95.78v2.11h.014ZM84.04 18.356c0-3.534 2.712-6.342 5.877-6.342 3.15 0 5.877 2.808 5.877 6.342s-2.713 6.329-5.877 6.329c-3.15 0-5.877-2.795-5.877-6.329Z" clip-rule="evenodd"/></g><defs><clipPath id="a"><path fill="#fff" d="M0 0h100v35.616H0z"/></clipPath></defs></svg>
